X:4157
T:Menuett
T:k 6
O:england
C:Wolfgang Amadeus Mozart
R:Minuet
V:1 Program 1 0
V:2 Program 1 0 bass
M:3/4
L:1/8
K:C
V:1
c4ec|^cdd4|d4fd|^dee4|e2eg^fa|
V:2
z2E,2C,2|z2B,2G,2|z2B,2G,2|z2C2C,2|z2C2C2|
V:1
gdd3^d|ecBAG^F|^F4G2::G4BG|G^FF4|
V:2
B,2B,2B,2|C2D2D,2|G,2D,2G,,2::z2B,,2G,,2|z2A,,2A,,2|
V:1
=F4dF|FEE4|A2AcBd|ceG3^G|AFEDCB,|B,4C2:|
V:2
z2D,2B,,2|z2C,2C,,2|F,2F,2F,2|E,2E,2E,2|F,2G,2G,,2|C,2G,,2C,,2:|


